src/assets/duotone/MoneyTime.svg

<svg width="24" height="24" viewBox="0 0 24 24"  xmlns="http://www.w3.org/2000/svg">
<path d="M5 14C2.79 14 1 15.79 1 18C1 20.21 2.79 22 5 22C7.21 22 9 20.21 9 18C9 15.79 7.21 14 5 14ZM6 17.68C6 18.29 5.67002 18.87 5.15002 19.18L4.39001 19.64C4.27001 19.71 4.14001 19.75 4.01001 19.75C3.76001 19.75 3.51 19.62 3.37 19.39C3.16 19.04 3.27 18.57 3.63 18.36L4.39001 17.9C4.46001 17.86 4.51001 17.77 4.51001 17.69V16.76C4.51001 16.35 4.85001 16.01 5.26001 16.01C5.67001 16.01 6.01001 16.35 6.01001 16.76V17.68H6Z" />
<path opacity="0.4" d="M22 9V15C22 18.5 20 20 17 20H8.45001C8.80001 19.41 9 18.73 9 18C9 15.79 7.21 14 5 14C3.8 14 2.73 14.53 2 15.36V9C2 5.5 4 4 7 4H17C20 4 22 5.5 22 9Z" />
<path d="M12 14.5C13.3807 14.5 14.5 13.3807 14.5 12C14.5 10.6193 13.3807 9.5 12 9.5C10.6193 9.5 9.5 10.6193 9.5 12C9.5 13.3807 10.6193 14.5 12 14.5Z" />
<path d="M18.5 14.75C18.09 14.75 17.75 14.41 17.75 14V10C17.75 9.59 18.09 9.25 18.5 9.25C18.91 9.25 19.25 9.59 19.25 10V14C19.25 14.41 18.91 14.75 18.5 14.75Z" />
</svg>

<?xml version="1.0" encoding="UTF-8"?>
<svg width="24" height="24" viewBox="0 0 24 24" xmlns="http://www.w3.org/2000/svg">
 <path d="m5 14c-2.21 0-4 1.79-4 4s1.79 4 4 4 4-1.79 4-4-1.79-4-4-4zm1 3.68c0 0.61-0.32998 1.19-0.84998 1.5l-0.76001 0.46c-0.12 0.07-0.25 0.11-0.38 0.11-0.25 0-0.50001-0.13-0.64001-0.36-0.21-0.35-0.1-0.82 0.26-1.03l0.76001-0.46c0.07-0.04 0.12-0.13 0.12-0.21v-0.93c0-0.41 0.34-0.75 0.75-0.75s0.75 0.34 0.75 0.75v0.92h-0.01001z"/>
 <path d="m22 9v6c0 3.5-2 5-5 5h-8.55c0.35-0.59 0.54999-1.27 0.54999-2 0-2.21-1.79-4-4-4-1.2 0-2.27 0.53-3 1.36v-6.36c0-3.5 2-5 5-5h10c3 0 5 1.5 5 5z" opacity=".4"/>
 <path d="m12 14.5c1.3807 0 2.5-1.1193 2.5-2.5s-1.1193-2.5-2.5-2.5-2.5 1.1193-2.5 2.5 1.1193 2.5 2.5 2.5z"/>
 <path d="m18.5 14.75c-0.41 0-0.75-0.34-0.75-0.75v-4c0-0.41 0.34-0.75 0.75-0.75s0.75 0.34 0.75 0.75v4c0 0.41-0.34 0.75-0.75 0.75z"/>
</svg>
